X: 1
T:Captain Horne
M:C
L:1/8
Q:80
C:Traditional
S:Strathspey
K:HP
e|:
{g}f3/2A/2{gAGAG}A2{g}B/2{d}G3/2{Gdc}d3/2e/2|
{g}f3/2A/2{gAGAG}A2{g}B/2d3/2{gdc}d3/2e/2|
{g}f3/2A/2{gAGAG}A2{g}B/2{d}G3/2{gf}g2|  !
{a}f/2a3/2{ef}e3/2d/2{g}B/2d3/2{gdc}d2:|
e|:
{gfg}f2{g}((3fed){gfg}f2{g}f/2a3/2|
{fg}f2{g}((3fed){g}e3/2f/2{ag}a2|  !
{fg}f2{g}((3fed){g}e3/2f/2{gf}g3/2e/2|
a3/2f/2{gef}e3/2d/2{g}Bd{gdc}d2:|
